wonderboy/_inc/system.svg

<svg xmlns="http://www.w3.org/2000/svg"><path d="m136.074284 4.13499989.449716.23000011c6.546 3.27 16.209 13.089 16.209 16.206l.004633.2759867c.116845 3.2905316 2.423854-1.18161 4.649841-9.0026584l2.668526-9.5073283 11.532-.468 11.532-.465 7.482 12.153 7.323 12.156v-24.156h21.819v71.844l-20.571-.933-8.415-14.805-8.415-14.649-.003432 16.4777989c-.048931 13.1624857-.76214 13.7289762-10.868214 13.7522801l-12.507354.000921-.003605-26.8332754c-.046412-17.2437896-.554995-21.3509246-2.333395-21.9437246l-.239604-.1039973c-1.485646-.6091925-1.576128.1000461-.537396 3.0649973 3.582 9.351.621 24-7.014 34.128-9.195 11.844-29.61 16.677-43.635 10.287-13.56-6.078-24.156-24.936-21.663-38.181l.1561519-1.1026219c.3427902-2.5821136.4300299-4.5073781.1558481-4.5073781-.468 0-3.117 10.44-5.922 23.376l-5.301 23.376h-22.597l-2.649-12-.211918-1.024637c-2.276365-10.7860475-5.0286902-16.9139048-5.0851973-11.7639769l-.0008847.1646139c0 1.1461224-.9209913 6.4974302-2.1565013 12.0711887l-2.8324987 12.5528113h-22.44l-7.482-34.599-4.6901025-23.0886652c-1.507161-7.5073679-2.4893199-12.63554084-2.48202131-13.45775274l.00512381-.07458206c0-3.117 21.663-2.805 22.752.156l.0574081.16688627c.5063567 1.58188296 1.7004765 7.88188293 2.7475919 14.32611373l2.028 12.156 1.713-6.078.8234063-3.0538594c.9205312-3.4628906 2.0595937-7.9336406 2.7615937-11.4391406l1.869-8.262h17.766l4.1308285 15.6635711c1.8712267 7.0087026 3.5283005 11.8711063 3.8201715 11.1414289l.0382756-.1280087c.3529174-1.2761483 1.3980452-7.291897 2.2987244-13.7409913l1.869-12.156 15.851406-.60105c9.865314-.3321 9.053694.36855 5.967594 13.69305l-.1714.6782296c-1.2824646 5.1706975-1.834225 9.6252704-1.3886 10.0737704.4457143.4457143.749932.042449.7778944-.9376871l.0021056-.1513129c0-4.209 9.819-15.897 16.674-19.95 9.362955-5.37136364 23.86458-5.90667355 33.681284-1.00700011zm376.343716-4.13499989c11.844 0 18.387 2.493 25.713 9.819 17.61 17.766 13.092 48.465-8.727 59.22-10.443 5.142-19.014 6.234-26.493 3.585-10.0965-3.6717222-17.638313-9.744966-21.746154-17.3347745l-4.122846-7.7572255-.156 5.142c0 7.638-4.053 13.872-10.911 17.454l-.728543.3641655c-4.705305 2.2727891-8.996116 2.7305528-23.100014 2.7520204l-19.806443.0008141-.005608-30.6736646c-.041998-17.3062272-.371898-18.7170094-2.631348-18.1873423l-.624873.1653873c-2.320435.6075501-2.584355.1423759-1.668269-3.4751275l3.370098-12.8152529 1.716-6.702 26.589555.004521c14.185904.0375243 15.670902.38650029 19.335753 3.631977l.982692.884502c4.521 4.053 5.142 5.61 5.142 12.312 0 5.61-.933 9.195-3.426 12.468l-3.429 4.674 3.273 2.805c1.622842 1.6256842 3.525706 4.0887424 4.384723 5.8000204l.133277.2779796c1.092 2.181 1.248.624.624-4.83-.936-9.507 1.089-16.209 8.103-25.872 6.858-9.504 15.585-13.713 28.209-13.713zm-118.175895 17.05982.200895.39418c4.833 9.351 2.961 20.883-4.83 29.766l-4.365 4.986 12.156 20.262-12.933.465-1.361841.0415452c-8.221809.2207389-11.777752-.265935-12.666159-1.5985452l-.297964-.5084565c-.885681-1.4851854-2.908491-4.7371799-4.688036-7.7505435l-.460071-.7223079c-2.266211-3.5116628-3.230269-4.2666685-3.132789-2.51264l.00786.1179479c.156 1.713 0 5.454 0 8.259l-.312 4.986h-23.376l-.003706-27.7273405c-.040032-17.5014491-.430712-20.5184524-2.424423-20.5806633l-.064871-.0009962c-1.557 0-2.181-.936-1.557-2.649l.223163-.7754628c.601788-2.1353557 1.825452-6.7021526 3.046837-10.9155372l2.496-9.039h17.766c23.45112 0 29.94847 2.5992252 36.576105 15.50282zm169.289895-17.05982 2.961 7.947 3.117 7.95 3.429-7.95 3.585-7.947h11.688c6.858 0 11.688.624 11.688 1.557 0 .936-4.206 9.975-9.351 20.262l-9.351 18.699v32.727h-23.376v-32.727l-10.379469-20.7649954c-4.662707-9.4054978-8.319531-17.32324784-8.319531-18.1960046 0-.91603636 4.806339-1.53420694 11.767092-1.557zm-228.465 1.557c0 1.092-1.401 6.858-3.117 12.624l-3.273 10.755h-9.195c-5.142 0-9.348.621-9.348 1.557 0 .9186667 4.803043 1.5367819 11.317453 1.55936l2.887433.0024343c10.537371.0342798 10.212397.6678057 7.455114 11.8422057l-1.869 7.167-9.819-.624-1.134101-.0453837c-6.330554-.2288669-8.837899.1304746-8.837899 1.6053837 0 1.2238983 3.461605 1.8476691 11.872531 1.8684622l12.748469.0005378-1.245 5.145-.293135 1.0163036c-.803982 2.8345825-1.995865 7.3623502-2.823865 10.6716964l-1.716 6.543h-41.919l-.003568-26.7991309c-.045092-15.9951034-.524385-21.3961521-1.826592-21.5080861l-.04184-.001783c-1.401 0-1.869 2.493-1.401 8.883.61082 11.3429508-1.489245 18.3119162-8.378535 26.3996553l-.348465.4053447c-8.418 9.816-15.429 12.621-32.727 12.621h-14.496l-.003709-28.7592311c-.039817-18.4836085-.428622-20.8043457-2.507314-20.0698666l-.137977.0520977c-2.181.78-2.337.156-1.557-5.142l.2049-1.043205c.66501-3.300885 1.7577-8.029395 2.6001-11.112795l1.713-5.922 16.521.465 3.513797.15316727c12.124452.57328657 14.336132 1.28545626 20.486203 5.14783273 3.894 2.493 8.571 7.011 10.284 9.972l3.117 5.454 2.493-8.415.203146-.6629482c1.271336-4.20694591 2.241976-8.51439624 2.290916-9.69074603l.001938-.08630577c0-1.31976 2.340656-1.950312 7.926475-2.0212271l2.084812-.01214741c5.211475-.05337158 15.291651-.49862549 23.180713-1.08362549l2.200303-.1380927c10.054961-.5961382 12.916697-.2288034 12.916697 1.2270927zm112.83 42.078c-2.886975 0-3.697785.7414875-3.736521 3.6675825l-.001479.2294175c0 3.117.777 3.897 3.738 3.897 2.028 0 4.053-.936 4.521-1.872 1.089-3.582-.624-5.922-4.521-5.922zm-337.086-14.649c-10.287 13.092 5.454 29.766 17.61 18.546 5.298-4.83 5.61-13.713.624-19.014-4.833-5.142-14.028-4.986-18.234.468zm402.072-5.61c-2.397115 0-5.945303 1.2980769-8.294946 3.0594632l-.276054.2135368c-3.273 2.493-4.05 4.521-4.05 9.975l.004978.7228391c.069129 4.7991659.880761 6.774787 3.82571 9.0798631l.219312.1692978c5.457 4.365 13.56 4.209 17.766-.156 7.794-8.415 2.028-23.064-9.195-23.064zm-260.503959 1.5648277-.220041-.0048277c-2.429886 0-2.787805 1.3309612-2.80437 11.6431419l.002324 2.357035c.045979 10.8657418.680689 11.7879894 5.451046 9.9998231 3.897-1.56 7.482-9.663 6.234-14.496-1.373529-5.1941176-4.996194-9.338639-8.662959-9.4991723zm110.745931 3.9693108-.004972.6998615c0 4.1225.417444 4.7662963 3.744215 4.4333796l.617785-.0683796c3.273-.312 4.209-1.248 4.209-4.365s-.936-4.053-4.209-4.362l-.4265-.0488395c-3.297377-.3561583-3.874328.1476099-3.930528 3.710978zm84.928028-7.0911385c-2.805 0-3.894.777-3.894 3.117 0 2.337 1.089 3.117 3.894 3.117s3.897-.78 3.897-3.117c0-2.34-1.092-3.117-3.897-3.117z" fill="#fff"/></svg>

<?xml version="1.0" encoding="utf-8"?>
<svg xmlns="http://www.w3.org/2000/svg">
  <path fill="#FFF" d="M136.074284,4.13499989 L136.524,4.365 C143.07,7.635 152.733,17.454 152.733,20.571 L152.737633,20.8469867 C152.854478,24.1375183 155.161487,19.6653767 157.387474,11.8443283 L160.056,2.337 L171.588,1.869 L183.12,1.404 L190.602,13.557 L197.925,25.713 L197.925,1.557 L219.744,1.557 L219.744,73.401 L199.173,72.468 L190.758,57.663 L182.343,43.014 L182.339568,59.4917989 C182.290637,72.6542846 181.577428,73.2207751 171.471354,73.244079 L158.964,73.245 L158.960395,46.4117246 C158.913983,29.167935 158.4054,25.0608 156.627,24.468 L156.387396,24.3640027 C154.90175,23.7548102 154.811268,24.4640488 155.85,27.429 C159.432,36.78 156.471,51.429 148.836,61.557 C139.641,73.401 119.226,78.234 105.201,71.844 C91.641,65.766 81.045,46.908 83.538,33.663 L83.6941519,32.5603781 C84.0369421,29.9782645 84.1241818,28.053 83.85,28.053 C83.382,28.053 80.733,38.493 77.928,51.429 L72.627,74.805 L50.03,74.805 L47.381,62.805 L47.169082,61.780363 C44.892717,50.9943155 42.1403918,44.8664582 42.0838847,50.0163861 L42.083,50.181 C42.083,51.3271224 41.1620087,56.6784302 39.9264987,62.2521887 L37.094,74.805 L14.654,74.805 L7.172,40.206 L2.4818975,17.1173348 C0.9747365,9.6099669 -0.0074224,4.48179396 -0.000123813035,3.65958206 L0.005,3.585 C0.005,0.468 21.668,0.78 22.757,3.741 L22.8144081,3.90788627 C23.3207648,5.48976923 24.5148846,11.7897692 25.562,18.234 L27.59,30.39 L29.303,24.312 L30.1264063,21.2581406 C31.0469375,17.79525 32.186,13.3245 32.888,9.819 L34.757,1.557 L52.523,1.557 L56.6538285,17.2205711 C58.5250552,24.2292737 60.182129,29.0916774 60.474,28.362 L60.5122756,28.2339913 C60.865193,26.957843 61.9103208,20.9420943 62.811,14.493 L64.68,2.337 L80.531406,1.73595 C90.39672,1.40385 89.5851,2.1045 86.499,15.429 L86.3276,16.1072296 C85.0451354,21.2779271 84.493375,25.7325 84.939,26.181 C85.3847143,26.6267143 85.688932,26.223449 85.7168944,25.2433129 L85.719,25.092 C85.719,20.883 95.538,9.195 102.393,5.142 C111.755955,-0.229363636 126.25758,-0.764673554 136.074284,4.13499989 L136.074284,4.13499989 Z M512.418,0 C524.262,0 530.805,2.493 538.131,9.819 C555.741,27.585 551.223,58.284 529.404,69.039 C518.961,74.181 510.39,75.273 502.911,72.624 C492.8145,68.9522778 485.272687,62.879034 481.164846,55.2892255 L477.042,47.532 L476.886,52.674 C476.886,60.312 472.833,66.546 465.975,70.128 L465.246457,70.4921655 C460.541152,72.7649546 456.250341,73.2227183 442.146443,73.2441859 L422.34,73.245 L422.334392,42.5713354 C422.292394,25.2651082 421.962494,23.854326 419.703044,24.3839931 L419.078171,24.5493804 C416.757736,25.1569305 416.493816,24.6917563 417.409902,21.0742529 L420.78,8.259 L420.78,8.259 L422.496,1.557 L449.085555,1.561521 C463.271459,1.5990453 464.756457,1.94802129 468.421308,5.193498 L469.404,6.078 C473.925,10.131 474.546,11.688 474.546,18.39 C474.546,24 473.613,27.585 471.12,30.858 L467.691,35.532 L470.964,38.337 C472.586842,39.9626842 474.489706,42.4257424 475.348723,44.1370204 L475.482,44.415 C476.574,46.596 476.73,45.039 476.106,39.585 C475.17,30.078 477.195,23.376 484.209,13.713 C491.067,4.209 499.794,0 512.418,0 Z M394.242105,17.05982 L394.443,17.454 C399.276,26.805 397.404,38.337 389.613,47.22 L385.248,52.206 L397.404,72.468 L384.471,72.933 L383.109159,72.9745452 C374.88735,73.1952841 371.331407,72.7086102 370.443,71.376 L370.145036,70.8675435 C369.259355,69.3823581 367.236545,66.1303636 365.457,63.117 L364.996929,62.3946921 C362.730718,58.8830293 361.76666,58.1280236 361.86414,59.8820521 L361.872,60 C362.028,61.713 361.872,65.454 361.872,68.259 L361.56,73.245 L338.184,73.245 L338.180294,45.5176595 C338.140262,28.0162104 337.749582,24.9992071 335.755871,24.9369962 L335.691,24.936 C334.134,24.936 333.51,24 334.134,22.287 L334.357163,21.5115372 C334.958951,19.3761815 336.182615,14.8093846 337.404,10.596 L339.9,1.557 L357.666,1.557 C381.11712,1.557 387.61447,4.1562252 394.242105,17.05982 L394.242105,17.05982 Z M563.532,0 L566.493,7.947 L569.61,15.897 L573.039,7.947 L576.624,0 L588.312,0 C595.17,0 600,0.624 600,1.557 C600,2.493 595.794,11.532 590.649,21.819 L581.298,40.518 L581.298,73.245 L557.922,73.245 L557.922,40.518 L547.542531,19.7530046 C542.879824,10.3475068 539.223,2.42975676 539.223,1.557 C539.223,0.640963636 544.029339,0.0227930579 550.990092,0 L563.532,0 Z M335.067,1.557 C335.067,2.649 333.666,8.415 331.95,14.181 L328.677,24.936 L319.482,24.936 C314.34,24.936 310.134,25.557 310.134,26.493 C310.134,27.4116667 314.937043,28.0297819 321.451453,28.05236 L324.338886,28.0547943 C334.876257,28.0890741 334.551283,28.7226 331.794,39.897 L329.925,47.064 L320.106,46.44 L318.971899,46.3946163 C312.641345,46.1657494 310.134,46.5250909 310.134,48 C310.134,49.2238983 313.595605,49.8476691 322.006531,49.8684622 L334.755,49.869 L333.51,55.014 L333.216865,56.0303036 C332.412883,58.8648861 331.221,63.3926538 330.393,66.702 L328.677,73.245 L286.758,73.245 L286.754432,46.4458691 C286.70934,30.4507657 286.230047,25.049717 284.92784,24.937783 L284.886,24.936 C283.485,24.936 283.017,27.429 283.485,33.819 C284.09582,45.1619508 281.995755,52.1309162 275.106465,60.2186553 L274.758,60.624 C266.34,70.44 259.329,73.245 242.031,73.245 L227.535,73.245 L227.531291,44.4857689 C227.491474,26.0021604 227.102669,23.6814232 225.023977,24.4159023 L224.886,24.468 C222.705,25.248 222.549,24.624 223.329,19.326 L223.5339,18.282795 C224.19891,14.98191 225.2916,10.2534 226.134,7.17 L227.847,1.248 L244.368,1.713 L247.881797,1.86616727 C260.006249,2.43945384 262.217929,3.15162353 268.368,7.014 C272.262,9.507 276.939,14.025 278.652,16.986 L281.769,22.44 L284.262,14.025 L284.465146,13.3620518 C285.736482,9.15510589 286.707122,4.84765556 286.756062,3.67130577 L286.758,3.585 C286.758,2.26524 289.098656,1.634688 294.684475,1.5637729 L296.769287,1.55162549 C301.980762,1.49825391 312.060938,1.053 319.95,0.468 L322.150303,0.329907299 C332.205264,-0.266230899 335.067,0.101103896 335.067,1.557 Z M447.897,43.635 C445.010025,43.635 444.199215,44.3764875 444.160479,47.3025825 L444.159,47.532 C444.159,50.649 444.936,51.429 447.897,51.429 C449.925,51.429 451.95,50.493 452.418,49.557 C453.507,45.975 451.794,43.635 447.897,43.635 Z M110.811,28.986 C100.524,42.078 116.265,58.752 128.421,47.532 C133.719,42.702 134.031,33.819 129.045,28.518 C124.212,23.376 115.017,23.532 110.811,28.986 Z M512.883,23.376 C510.485885,23.376 506.937697,24.6740769 504.588054,26.4354632 L504.312,26.649 C501.039,29.142 500.262,31.17 500.262,36.624 L500.266978,37.3468391 C500.336107,42.146005 501.147739,44.1216261 504.092688,46.4267022 L504.312,46.596 C509.769,50.961 517.872,50.805 522.078,46.44 C529.872,38.025 524.106,23.376 512.883,23.376 Z M252.379041,24.9408277 L252.159,24.936 C249.729114,24.936 249.371195,26.2669612 249.35463,36.5791419 L249.356954,38.9361769 C249.402933,49.8019187 250.037643,50.7241663 254.808,48.936 C258.705,47.376 262.29,39.273 261.042,34.44 C259.668471,29.2458824 256.045806,25.101361 252.379041,24.9408277 L252.379041,24.9408277 Z M363.124972,28.9101385 L363.12,29.61 C363.12,33.7325 363.537444,34.3762963 366.864215,34.0433796 L367.482,33.975 C370.755,33.663 371.691,32.727 371.691,29.61 C371.691,26.493 370.755,25.557 367.482,25.248 L367.0555,25.1991605 C363.758123,24.8430022 363.181172,25.3467704 363.124972,28.9101385 L363.124972,28.9101385 Z M448.053,21.819 C445.248,21.819 444.159,22.596 444.159,24.936 C444.159,27.273 445.248,28.053 448.053,28.053 C450.858,28.053 451.95,27.273 451.95,24.936 C451.95,22.596 450.858,21.819 448.053,21.819 Z"/>
</svg>
